SharedPackages/Infrastructure/DesignResourcesKitIcons/Sources/DesignResourcesKitIcons/DesignSystemImages.xcassets/Color/24px/Key-Color-24.imageset/Key-Color-24.svg

<svg width="24" height="24" viewBox="0 0 24 24" fill="none" xmlns="http://www.w3.org/2000/svg">
<path fill-rule="evenodd" clip-rule="evenodd" d="M15 2.625C18.5208 2.625 21.375 5.47918 21.375 9C21.375 12.5208 18.5208 15.375 15 15.375C14.4323 15.375 13.8821 15.3006 13.3584 15.1611C12.9786 15.06 12.5652 15.1432 12.2891 15.4229L9.73926 18.0059C9.50592 18.242 9.18744 18.375 8.85547 18.375H7.87012C7.45864 18.3751 7.12508 18.7086 7.125 19.1201V19.8848C7.1249 20.7078 6.45776 21.3749 5.63477 21.375H4.6123C3.51477 21.375 2.625 20.4852 2.625 19.3877V18.8555C2.62508 18.0674 2.93723 17.3115 3.49316 16.7529L8.56836 11.6533C8.84105 11.3792 8.92371 10.973 8.82715 10.5986C8.69541 10.0877 8.625 9.55207 8.625 9C8.625 5.47918 11.4792 2.625 15 2.625ZM15.5 6.66699C14.4875 6.667 13.667 7.48749 13.667 8.5C13.667 9.51252 14.4875 10.333 15.5 10.333C16.5125 10.333 17.333 9.51252 17.333 8.5C17.333 7.48749 16.5125 6.66699 15.5 6.66699Z" fill="#FFC95C"/>
<path d="M20.75 9C20.75 5.82436 18.1756 3.25 15 3.25C11.8244 3.25 9.25 5.82436 9.25 9C9.25 9.49868 9.31386 9.9818 9.43262 10.4424C9.57545 10.9962 9.46306 11.6398 9.01172 12.0938L3.93652 17.1934C3.49716 17.6348 3.25008 18.2327 3.25 18.8555V19.3877C3.25 20.1401 3.85994 20.75 4.6123 20.75H5.63477L5.72363 20.7451C6.13047 20.7035 6.45352 20.3804 6.49512 19.9736L6.5 19.8848V19.1201C6.50015 18.3636 7.1135 17.7501 7.87012 17.75H8.85547C9.02042 17.75 9.17902 17.6837 9.29492 17.5664L11.8447 14.9834C12.3028 14.5199 12.9586 14.4082 13.5195 14.5576C13.9911 14.6832 14.4873 14.75 15 14.75C18.1756 14.75 20.75 12.1756 20.75 9ZM16.708 8.5C16.708 7.83266 16.1673 7.29199 15.5 7.29199C14.8327 7.292 14.292 7.83267 14.292 8.5C14.292 9.16733 14.8327 9.708 15.5 9.70801C16.1673 9.70801 16.708 9.16734 16.708 8.5ZM22 9C22 12.866 18.866 16 15 16C14.3775 16 13.773 15.918 13.1973 15.7646C12.9988 15.7119 12.8276 15.7669 12.7334 15.8623L10.1836 18.4453C9.83285 18.8002 9.35438 19 8.85547 19H7.87012C7.80386 19.0001 7.75008 19.0538 7.75 19.1201V19.8848C7.74986 21.0529 6.80285 21.9998 5.63477 22H4.6123C3.16959 22 2 20.8304 2 19.3877V18.8555C2.00009 17.9024 2.37759 16.9881 3.0498 16.3125L8.125 11.2129C8.21875 11.1187 8.2719 10.9497 8.22168 10.7549C8.07697 10.1937 8 9.60541 8 9C8 5.13401 11.134 2 15 2C18.866 2 22 5.13401 22 9ZM17.958 8.5C17.958 9.8577 16.8577 10.958 15.5 10.958C14.1423 10.958 13.042 9.8577 13.042 8.5C13.042 7.14232 14.1423 6.04201 15.5 6.04199C16.8577 6.04199 17.958 7.14232 17.958 8.5Z" fill="#B66A1F"/>
</svg>

<svg fill="none" viewBox="0 0 24 24" xmlns="http://www.w3.org/2000/svg">
  <path fill="#FFD65C" d="M15 2.625a6.375 6.375 0 1 1-1.641 12.537c-.38-.101-.794-.018-1.07.262l-2.55 2.582a1.24 1.24 0 0 1-.883.369H7.87a.745.745 0 0 0-.745.745v.764a1.49 1.49 0 0 1-1.49 1.491H4.612a1.987 1.987 0 0 1-1.987-1.987v-.532c0-.789.312-1.545.868-2.103l5.076-5.1c.273-.274.355-.68.258-1.054A6.375 6.375 0 0 1 15 2.625Zm.5 4.042a1.833 1.833 0 1 0 0 3.667 1.833 1.833 0 0 0 0-3.667Z"/>
  <path fill="url(#Key-Color-24_svg__a)" d="M20.75 9a5.75 5.75 0 0 0-5.676-5.75H15A5.75 5.75 0 0 0 9.25 9v.093c.008.435.063.858.16 1.263l.022.087.013.052c.12.524.012 1.12-.392 1.556l-.041.043-5.076 5.1a2.356 2.356 0 0 0-.686 1.662v.532c0 .752.61 1.362 1.362 1.362h1.023a.865.865 0 0 0 .865-.866v-.764c0-.757.613-1.37 1.37-1.37h1.016a.617.617 0 0 0 .387-.162l.022-.021 2.55-2.582.043-.043c.455-.428 1.087-.529 1.631-.384l.089.022c.445.111.911.17 1.392.17h.074A5.75 5.75 0 0 0 20.75 9Zm-4.043-.562a1.208 1.208 0 1 0 .001.062l-.001-.062Zm5.292.652A7 7 0 0 1 15.091 16H15c-.583 0-1.15-.072-1.694-.207l-.108-.027c-.198-.053-.37.002-.464.097l-2.55 2.582c-.34.344-.8.542-1.281.554L8.856 19H7.87a.12.12 0 0 0-.12.12v.764A2.115 2.115 0 0 1 5.635 22H4.612A2.612 2.612 0 0 1 2 19.388v-.532c0-.954.378-1.868 1.05-2.544l5.076-5.1.017-.018a.485.485 0 0 0 .08-.439l-.027-.105A7.01 7.01 0 0 1 8 9.113V9a7 7 0 0 1 7-7h.09A7 7 0 0 1 22 9v.09Zm-4.04-.59a2.458 2.458 0 1 1-4.917 0 2.458 2.458 0 0 1 4.916 0Z"/>
  <defs>
    <linearGradient id="Key-Color-24_svg__a" x1="12" x2="12" y1="2.75" y2="21.25" gradientUnits="userSpaceOnUse">
      <stop stop-color="#E2A412"/>
      <stop offset="1" stop-color="#C18010"/>
    </linearGradient>
  </defs>
</svg>
